Newaita-dark/apps/256/opera-developer.svg

<?xml version="1.0" encoding="UTF-8"?>
<svg xmlns="http://www.w3.org/2000/svg" xmlns:xlink="http://www.w3.org/1999/xlink" width="256pt" height="256pt" viewBox="0 0 256 256" version="1.1">
<defs>
<radialGradient id="radial0" gradientUnits="userSpaceOnUse" cx="450.908936" cy="189.579361" fx="450.908936" fy="189.579361" r="21.166656" gradientTransform="matrix(0.00000139336,-0.62506,-1.125108,-0.000000812309,356.185215,508.762635)">
<stop offset="0" style="stop-color:rgb(0%,0%,0%);stop-opacity:0.313725;"/>
<stop offset="0.222222" style="stop-color:rgb(0%,0%,0%);stop-opacity:0.27451;"/>
<stop offset="1" style="stop-color:rgb(0%,0%,0%);stop-opacity:0;"/>
</radialGradient>
<radialGradient id="radial1" gradientUnits="userSpaceOnUse" cx="450.908936" cy="189.579361" fx="450.908936" fy="189.579361" r="21.166656" gradientTransform="matrix(-0.00000139336,0.62506,1.125108,0.000000812309,-102.160949,-60.219856)">
<stop offset="0" style="stop-color:rgb(0%,0%,0%);stop-opacity:0.313725;"/>
<stop offset="0.222222" style="stop-color:rgb(0%,0%,0%);stop-opacity:0.27451;"/>
<stop offset="1" style="stop-color:rgb(0%,0%,0%);stop-opacity:0;"/>
</radialGradient>
<radialGradient id="radial2" gradientUnits="userSpaceOnUse" cx="450.908936" cy="189.579361" fx="450.908936" fy="189.579361" r="21.166656" gradientTransform="matrix(-0.00000139336,-0.62506,1.125108,-0.000000812309,-102.160949,508.762635)">
<stop offset="0" style="stop-color:rgb(0%,0%,0%);stop-opacity:0.313725;"/>
<stop offset="0.222222" style="stop-color:rgb(0%,0%,0%);stop-opacity:0.27451;"/>
<stop offset="1" style="stop-color:rgb(0%,0%,0%);stop-opacity:0;"/>
</radialGradient>
<radialGradient id="radial3" gradientUnits="userSpaceOnUse" cx="450.908936" cy="189.579361" fx="450.908936" fy="189.579361" r="21.166656" gradientTransform="matrix(0.00000139336,0.62506,-1.125108,0.000000812309,356.1852,-60.21986)">
<stop offset="0" style="stop-color:rgb(0%,0%,0%);stop-opacity:0.313725;"/>
<stop offset="0.222222" style="stop-color:rgb(0%,0%,0%);stop-opacity:0.27451;"/>
<stop offset="1" style="stop-color:rgb(0%,0%,0%);stop-opacity:0;"/>
</radialGradient>
<linearGradient id="linear0" gradientUnits="userSpaceOnUse" x1="255.323059" y1="233.5" x2="255.323044" y2="254.666656" gradientTransform="matrix(0.10688,0,0,0.500048,99.723089,107.510269)">
<stop offset="0" style="stop-color:rgb(0%,0%,0%);stop-opacity:0.27451;"/>
<stop offset="1" style="stop-color:rgb(0%,0%,0%);stop-opacity:0;"/>
</linearGradient>
<linearGradient id="linear1" gradientUnits="userSpaceOnUse" x1="960" y1="1695.118164" x2="960" y2="175.118118" gradientTransform="matrix(0.132304,0,0,0.132304,0,0)">
<stop offset="0" style="stop-color:rgb(87.843137%,87.843137%,87.843137%);stop-opacity:1;"/>
<stop offset="1" style="stop-color:rgb(93.333333%,93.333333%,93.333333%);stop-opacity:1;"/>
</linearGradient>
</defs>
<g id="surface1">
<path style=" stroke:none;fill-rule:nonzero;fill:url(#radial0);" d="M 145.535156 224.269531 L 166.703125 224.269531 L 166.703125 213.6875 L 145.535156 213.6875 Z M 145.535156 224.269531 "/>
<path style=" stroke:none;fill-rule:nonzero;fill:url(#radial1);" d="M 108.488281 224.269531 L 87.320312 224.269531 L 87.320312 234.855469 L 108.488281 234.855469 Z M 108.488281 224.269531 "/>
<path style=" stroke:none;fill-rule:nonzero;fill:url(#radial2);" d="M 108.488281 224.269531 L 87.320312 224.269531 L 87.320312 213.6875 L 108.488281 213.6875 Z M 108.488281 224.269531 "/>
<path style=" stroke:none;fill-rule:nonzero;fill:url(#radial3);" d="M 145.535156 224.269531 L 166.703125 224.269531 L 166.703125 234.855469 L 145.535156 234.855469 Z M 145.535156 224.269531 "/>
<path style=" stroke:none;fill-rule:nonzero;fill:url(#linear0);" d="M 108.488281 221.625 L 145.535156 221.625 L 145.535156 234.855469 L 108.488281 234.855469 Z M 108.488281 221.625 "/>
<path style=" stroke:none;fill-rule:nonzero;fill:url(#linear1);" d="M 127.011719 23.167969 C 80.101562 23.167969 42.335938 68.015625 42.335938 123.71875 C 42.335938 179.425781 80.101562 224.273438 127.011719 224.273438 C 173.921875 224.273438 211.6875 179.425781 211.6875 123.71875 C 211.6875 68.015625 173.921875 23.167969 127.011719 23.167969 Z M 127.011719 44.335938 C 150.46875 44.335938 169.347656 79.742188 169.347656 123.71875 C 169.347656 167.699219 150.46875 203.101562 127.011719 203.101562 C 103.558594 203.101562 84.675781 167.699219 84.675781 123.71875 C 84.675781 79.742188 103.558594 44.335938 127.011719 44.335938 Z M 127.011719 44.335938 "/>
<path style=" stroke:none;fill-rule:nonzero;fill:rgb(0%,0%,0%);fill-opacity:0.196078;" d="M 127.011719 42.121094 C 103.558594 42.121094 84.675781 77.527344 84.675781 121.503906 C 84.675781 121.875 84.675781 122.242188 84.679688 122.613281 C 84.992188 79.148438 103.753906 44.335938 127.011719 44.335938 C 150.269531 44.335938 169.03125 79.148438 169.34375 122.613281 C 169.347656 122.242188 169.347656 121.875 169.347656 121.503906 C 169.347656 77.527344 150.46875 42.121094 127.011719 42.121094 Z M 42.34375 122.613281 C 42.339844 122.980469 42.335938 123.351562 42.335938 123.71875 C 42.335938 179.425781 80.101562 224.273438 127.011719 224.273438 C 173.921875 224.273438 211.6875 179.425781 211.6875 123.71875 C 211.6875 123.351562 211.683594 122.980469 211.679688 122.613281 C 211.183594 177.804688 173.609375 222.054688 127.011719 222.054688 C 80.414062 222.054688 42.839844 177.804688 42.34375 122.613281 Z M 42.34375 122.613281 "/>
<path style=" stroke:none;fill-rule:nonzero;fill:rgb(100%,100%,100%);fill-opacity:0.392157;" d="M 127.011719 23.167969 C 80.101562 23.167969 42.335938 68.015625 42.335938 123.71875 C 42.335938 124.160156 42.339844 124.601562 42.34375 125.042969 C 42.9375 69.953125 80.472656 25.816406 127.011719 25.816406 C 173.550781 25.816406 211.085938 69.953125 211.679688 125.042969 C 211.683594 124.601562 211.6875 124.160156 211.6875 123.71875 C 211.6875 68.015625 173.921875 23.167969 127.011719 23.167969 Z M 84.679688 125.042969 C 84.675781 125.484375 84.675781 125.925781 84.675781 126.367188 C 84.675781 170.34375 103.558594 205.75 127.011719 205.75 C 150.46875 205.75 169.347656 170.34375 169.347656 126.367188 C 169.347656 125.925781 169.347656 125.484375 169.34375 125.042969 C 168.96875 168.40625 150.230469 203.101562 127.011719 203.101562 C 103.792969 203.101562 85.054688 168.40625 84.679688 125.042969 Z M 84.679688 125.042969 "/>
<path style=" stroke:none;fill-rule:nonzero;fill:rgb(12.941177%,12.941177%,12.941177%);fill-opacity:1;" d="M 127.011719 22.417969 C 79.625 22.417969 41.585938 67.675781 41.585938 123.71875 C 41.585938 179.765625 79.625 225.023438 127.011719 225.023438 C 174.398438 225.023438 212.4375 179.765625 212.4375 123.71875 C 212.4375 67.675781 174.398438 22.417969 127.011719 22.417969 Z M 127.011719 23.917969 C 173.445312 23.917969 210.9375 68.355469 210.9375 123.71875 C 210.9375 179.085938 173.445312 223.519531 127.011719 223.519531 C 80.582031 223.519531 43.085938 179.085938 43.085938 123.71875 C 43.085938 68.355469 80.582031 23.917969 127.011719 23.917969 Z M 127.011719 43.585938 C 114.90625 43.585938 104.113281 52.695312 96.386719 67.183594 C 88.660156 81.671875 83.925781 101.625 83.925781 123.71875 C 83.925781 145.816406 88.660156 165.765625 96.386719 180.257812 C 104.113281 194.746094 114.90625 203.851562 127.011719 203.851562 C 139.117188 203.851562 149.910156 194.746094 157.636719 180.257812 C 165.367188 165.765625 170.101562 145.816406 170.101562 123.71875 C 170.101562 101.625 165.367188 81.671875 157.636719 67.183594 C 149.910156 52.695312 139.117188 43.585938 127.011719 43.585938 Z M 127.011719 45.085938 C 138.363281 45.085938 148.738281 53.683594 156.316406 67.890625 C 163.890625 82.097656 168.597656 101.839844 168.597656 123.71875 C 168.597656 145.601562 163.890625 165.34375 156.316406 179.550781 C 148.738281 193.757812 138.363281 202.351562 127.011719 202.351562 C 115.660156 202.351562 105.289062 193.757812 97.710938 179.550781 C 90.132812 165.34375 85.425781 145.601562 85.425781 123.71875 C 85.425781 101.839844 90.132812 82.097656 97.710938 67.890625 C 105.289062 53.683594 115.660156 45.085938 127.011719 45.085938 Z M 127.011719 45.085938 "/>
</g>
</svg>

<svg xmlns="http://www.w3.org/2000/svg" width="256pt" height="256pt" viewBox="0 0 256 256"><defs><radialGradient id="a" gradientUnits="userSpaceOnUse" cx="450.909" cy="189.579" fx="450.909" fy="189.579" r="21.167" gradientTransform="matrix(0 -.62506 -1.1251 0 356.185 508.763)"><stop offset="0" stop-opacity=".314"/><stop offset=".222" stop-opacity=".275"/><stop offset="1" stop-opacity="0"/></radialGradient><radialGradient id="b" gradientUnits="userSpaceOnUse" cx="450.909" cy="189.579" fx="450.909" fy="189.579" r="21.167" gradientTransform="matrix(0 .62506 1.1251 0 -102.16 -60.22)"><stop offset="0" stop-opacity=".314"/><stop offset=".222" stop-opacity=".275"/><stop offset="1" stop-opacity="0"/></radialGradient><radialGradient id="c" gradientUnits="userSpaceOnUse" cx="450.909" cy="189.579" fx="450.909" fy="189.579" r="21.167" gradientTransform="matrix(0 -.62506 1.1251 0 -102.16 508.763)"><stop offset="0" stop-opacity=".314"/><stop offset=".222" stop-opacity=".275"/><stop offset="1" stop-opacity="0"/></radialGradient><radialGradient id="d" gradientUnits="userSpaceOnUse" cx="450.909" cy="189.579" fx="450.909" fy="189.579" r="21.167" gradientTransform="matrix(0 .62506 -1.1251 0 356.185 -60.22)"><stop offset="0" stop-opacity=".314"/><stop offset=".222" stop-opacity=".275"/><stop offset="1" stop-opacity="0"/></radialGradient><linearGradient id="e" gradientUnits="userSpaceOnUse" x1="255.323" y1="233.5" x2="255.323" y2="254.667" gradientTransform="matrix(.10688 0 0 .50005 99.723 107.51)"><stop offset="0" stop-opacity=".275"/><stop offset="1" stop-opacity="0"/></linearGradient><linearGradient id="f" gradientUnits="userSpaceOnUse" x1="960" y1="1695.118" x2="960" y2="175.118" gradientTransform="scale(.1323)"><stop offset="0" stop-color="#e0e0e0"/><stop offset="1" stop-color="#eee"/></linearGradient></defs><path d="M145.535 224.27h21.168v-10.583h-21.168zm0 0" fill="url(#a)"/><path d="M108.488 224.27H87.32v10.585h21.168zm0 0" fill="url(#b)"/><path d="M108.488 224.27H87.32v-10.583h21.168zm0 0" fill="url(#c)"/><path d="M145.535 224.27h21.168v10.585h-21.168zm0 0" fill="url(#d)"/><path d="M108.488 221.625h37.047v13.23h-37.047zm0 0" fill="url(#e)"/><path d="M127.012 23.168c-46.91 0-84.676 44.848-84.676 100.55 0 55.708 37.766 100.555 84.676 100.555 46.91 0 84.675-44.847 84.675-100.554 0-55.703-37.765-100.551-84.675-100.551zm0 21.168c23.457 0 42.336 35.406 42.336 79.383 0 43.98-18.88 79.383-42.336 79.383-23.453 0-42.336-35.403-42.336-79.383 0-43.977 18.883-79.383 42.336-79.383zm0 0" fill="url(#f)"/><path d="M127.012 42.121c-23.453 0-42.336 35.406-42.336 79.383 0 .371 0 .738.004 1.11.312-43.466 19.074-78.278 42.332-78.278s42.02 34.812 42.332 78.277c.004-.37.004-.738.004-1.11 0-43.976-18.88-79.382-42.336-79.382zm-84.668 80.492c-.004.367-.008.739-.008 1.106 0 55.707 37.766 100.554 84.676 100.554 46.91 0 84.675-44.847 84.675-100.554 0-.367-.003-.739-.007-1.106-.496 55.192-38.07 99.442-84.668 99.442-46.598 0-84.172-44.25-84.668-99.442zm0 0" fill-opacity=".196"/><path d="M127.012 23.168c-46.91 0-84.676 44.848-84.676 100.55 0 .442.004.884.008 1.325.593-55.09 38.129-99.227 84.668-99.227 46.539 0 84.074 44.137 84.668 99.227.004-.441.007-.883.007-1.324 0-55.703-37.765-100.551-84.675-100.551zM84.68 125.043c-.004.441-.004.883-.004 1.324 0 43.977 18.883 79.383 42.336 79.383 23.457 0 42.336-35.406 42.336-79.383 0-.441 0-.883-.004-1.324-.375 43.363-19.114 78.059-42.332 78.059-23.219 0-41.957-34.696-42.332-78.059zm0 0" fill="#fff" fill-opacity=".392"/><path d="M127.012 22.418c-47.387 0-85.426 45.258-85.426 101.3 0 56.048 38.039 101.305 85.426 101.305 47.386 0 85.425-45.257 85.425-101.304 0-56.043-38.039-101.301-85.425-101.301zm0 1.5c46.433 0 83.925 44.437 83.925 99.8 0 55.368-37.492 99.802-83.925 99.802-46.43 0-83.926-44.434-83.926-99.801 0-55.364 37.496-99.801 83.926-99.801zm0 19.668c-12.106 0-22.899 9.11-30.625 23.598-7.727 14.488-12.461 34.441-12.461 56.535 0 22.097 4.734 42.047 12.46 56.539 7.727 14.488 18.52 23.594 30.626 23.594 12.105 0 22.898-9.106 30.625-23.594 7.73-14.492 12.465-34.442 12.465-56.54 0-22.093-4.735-42.046-12.465-56.534-7.727-14.489-18.52-23.598-30.625-23.598zm0 1.5c11.351 0 21.726 8.598 29.304 22.805 7.575 14.207 12.282 33.949 12.282 55.828 0 21.883-4.707 41.625-12.282 55.832-7.578 14.207-17.953 22.8-29.304 22.8-11.352 0-21.723-8.593-29.301-22.8-7.578-14.207-12.285-33.95-12.285-55.832 0-21.88 4.707-41.621 12.285-55.828s17.95-22.805 29.3-22.805zm0 0" fill="#212121"/></svg>
